Icons/Standard/BoxesWalltoWall.svg

<?xml version="1.0" encoding="UTF-8" standalone="no"?><!DOCTYPE svg PUBLIC "-//W3C//DTD SVG 1.1//EN" "http://www.w3.org/Graphics/SVG/1.1/DTD/svg11.dtd"><svg width="100%" height="100%" viewBox="0 0 64 64" version="1.1" xmlns="http://www.w3.org/2000/svg" xmlns:xlink="http://www.w3.org/1999/xlink" xml:space="preserve" xmlns:serif="http://www.serif.com/" style="fill-rule:evenodd;clip-rule:evenodd;stroke-linejoin:round;stroke-miterlimit:2;"><g id="brown"><path d="M23.5,35.797C23.5,36.625 22.828,37.297 22,37.297L8,37.297C7.172,37.297 6.5,36.625 6.5,35.797L6.5,16.886C6.5,16.058 7.172,15.386 8,15.386L22,15.386C22.828,15.386 23.5,16.058 23.5,16.886C23.5,16.058 24.172,15.386 25,15.386L39,15.386C39.828,15.386 40.5,16.058 40.5,16.886C40.5,16.058 41.172,15.386 42,15.386L56,15.386C56.828,15.386 57.5,16.058 57.5,16.886L57.5,35.797C57.5,36.625 56.828,37.297 56,37.297L42,37.297C41.172,37.297 40.5,36.625 40.5,35.797C40.5,36.625 39.828,37.297 39,37.297L25,37.297C24.172,37.297 23.5,36.625 23.5,35.797ZM20.5,34.297L20.5,18.386L9.5,18.386L9.5,34.297L20.5,34.297ZM54.5,34.297L54.5,18.386L43.5,18.386L43.5,34.297L54.5,34.297ZM37.5,34.297L37.5,18.386L26.5,18.386L26.5,34.297L37.5,34.297Z" style="fill:#acabab;"/><path d="M54.5,34.297L43.5,34.297L43.5,18.386L54.5,18.386L54.5,34.297ZM37.5,34.297L26.5,34.297L26.5,18.386L37.5,18.386L37.5,34.297ZM20.5,34.297L9.5,34.297L9.5,18.386L20.5,18.386L20.5,34.297Z" style="fill:#ebebeb;"/></g><g id="blue"><path d="M40.5,47.114C40.5,47.942 39.828,48.614 39,48.614C38.172,48.614 37.5,47.942 37.5,47.114L37.5,40.114C37.5,39.286 38.172,38.614 39,38.614C39.828,38.614 40.5,39.286 40.5,40.114C40.5,39.286 41.172,38.614 42,38.614C42.828,38.614 43.5,39.286 43.5,40.114L43.5,47.114C43.5,47.942 42.828,48.614 42,48.614C41.172,48.614 40.5,47.942 40.5,47.114ZM23.5,47.114C23.5,47.942 22.828,48.614 22,48.614C21.172,48.614 20.5,47.942 20.5,47.114L20.5,40.114C20.5,39.286 21.172,38.614 22,38.614C22.828,38.614 23.5,39.286 23.5,40.114C23.5,39.286 24.172,38.614 25,38.614C25.828,38.614 26.5,39.286 26.5,40.114L26.5,47.114C26.5,47.942 25.828,48.614 25,48.614C24.172,48.614 23.5,47.942 23.5,47.114ZM54.5,40.114C54.5,39.286 55.172,38.614 56,38.614C56.828,38.614 57.5,39.286 57.5,40.114L57.5,47.114C57.5,47.942 56.828,48.614 56,48.614C55.172,48.614 54.5,47.942 54.5,47.114L54.5,40.114ZM6.5,40.114C6.5,39.286 7.172,38.614 8,38.614C8.828,38.614 9.5,39.286 9.5,40.114L9.5,47.114C9.5,47.942 8.828,48.614 8,48.614C7.172,48.614 6.5,47.942 6.5,47.114L6.5,40.114Z" style="fill:#f3f4f4;"/></g></svg>

<svg xmlns="http://www.w3.org/2000/svg" xml:space="preserve" fill-rule="evenodd" stroke-linejoin="round" stroke-miterlimit="2" clip-rule="evenodd" viewBox="0 0 64 64">
  <g id="brown">
    <path fill="#acabab" d="M23.5 35.797a1.5 1.5 0 0 1-1.5 1.5H8a1.5 1.5 0 0 1-1.5-1.5V16.886a1.5 1.5 0 0 1 1.5-1.5h14a1.5 1.5 0 0 1 1.5 1.5 1.5 1.5 0 0 1 1.5-1.5h14a1.5 1.5 0 0 1 1.5 1.5 1.5 1.5 0 0 1 1.5-1.5h14a1.5 1.5 0 0 1 1.5 1.5v18.911a1.5 1.5 0 0 1-1.5 1.5H42a1.5 1.5 0 0 1-1.5-1.5 1.5 1.5 0 0 1-1.5 1.5H25a1.5 1.5 0 0 1-1.5-1.5Zm-3-1.5V18.386h-11v15.911h11Zm34 0V18.386h-11v15.911h11Zm-17 0V18.386h-11v15.911h11Z"/>
    <path fill="#ebebeb" d="M54.5 34.297h-11V18.386h11v15.911Zm-17 0h-11V18.386h11v15.911Zm-17 0h-11V18.386h11v15.911Z"/>
  </g>
  <g id="blue">
    <path fill="#f3f4f4" d="M40.5 47.114a1.5 1.5 0 0 1-3 0v-7a1.5 1.5 0 0 1 3 0 1.5 1.5 0 0 1 3 0v7a1.5 1.5 0 0 1-3 0Zm-17 0a1.5 1.5 0 0 1-3 0v-7a1.5 1.5 0 0 1 3 0 1.5 1.5 0 0 1 3 0v7a1.5 1.5 0 0 1-3 0Zm31-7a1.5 1.5 0 0 1 3 0v7a1.5 1.5 0 0 1-3 0v-7Zm-48 0a1.5 1.5 0 0 1 3 0v7a1.5 1.5 0 0 1-3 0v-7Z"/>
  </g>
</svg>
